X:2641
T:Horlepyp
O:England
M:2/4
L:1/8
Q:1/4=120
K:C
V:1
c/B/ |cC CG/F/ |E/G/c cd/^c/ |dD Dd/c/ |
B/d/g ga/b/ |c'/b/a/g/ a/g/f/e/ |f/e/d/c/ d/c/B/A/ |G/A/B/c/ d/e/f/d/ |
ec c:| |:G/F/ |E/G/c/G/ E/G/c/G/ |AF FA/G/ |
^F/A/d/A/ ^F/A/d/A/ |BG GA/B/ |ca/g/ a/g/f/e/ |f/e/d/c/ d/c/B/A/ |
G/A/B/c/ d/e/f/d/ |ec c:|
V:2          %Horlepyp (bas)
z |C,z z2 |C,z z2 |G,z z2 |
G,z z2 |C,z G,z |F,z C,z |G,z D,z |
C,z2 :| |:z|C, zG, z|F, zz2 |
D,z A,z |G,z z2 |C,z G,z |F,z C,z |
G,z D,z |C,z2 :|
V:3          %Horlepyp (bas) (bas)
z|z [E,G, C][E,G,C]z|z [E,G, C][E,G,C]z|z [F,G, B,][F,G,B,]z|
z [F,G, B,][F,G,B,]z|z [E,G, C]z [E,G, C]|z [F,A, C]z [F,A, C]|z [F,G, B,]z [F,G, B,]|
z [E,G, C][E,G,C]:| |:z|z [E,G, C]z [E,G, C]|z [F,A, C][F,A,C]z|
z [F,A, D]z [F,A, D]|z [G,B, D][G,B,D]z|z [E,G, C]z [E,G, C]|z [F,A, C]z [F,A, C]|
z [F,G, B,]z [F,G, B,]|z [E,G, C][E,G,C]:|
